dist/img/power.svg

<svg width="23" height="23" viewBox="0 0 23 23" fill="none" xmlns="http://www.w3.org/2000/svg">
<g clip-path="url(#clip0_60_1615)">
<g filter="url(#filter0_d_60_1615)">
<path d="M10.4218 12.5063V2.22813H12.602V12.5063H10.4218ZM11.476 20.7C10.2142 20.7 9.03224 20.4604 7.93016 19.9813C6.82808 19.5021 5.86176 18.8472 5.0312 18.0167C4.20065 17.1861 3.54978 16.2198 3.0786 15.1177C2.60742 14.0156 2.37183 12.8337 2.37183 11.5719C2.37183 10.2302 2.64735 8.96042 3.19839 7.7625C3.74943 6.56459 4.53606 5.54236 5.55828 4.69583L7.25933 6.37292C6.38085 6.96389 5.71002 7.71458 5.24683 8.625C4.78363 9.53542 4.55203 10.5097 4.55203 11.5479C4.55203 13.4806 5.22686 15.1257 6.57651 16.4833C7.92617 17.841 9.56731 18.5198 11.5 18.5198C13.4326 18.5198 15.0737 17.841 16.4234 16.4833C17.773 15.1257 18.4479 13.4806 18.4479 11.5479C18.4479 10.4778 18.2203 9.4875 17.7651 8.57708C17.3098 7.66667 16.643 6.90799 15.7645 6.30104L17.4656 4.6C18.4718 5.4625 19.2545 6.50469 19.8135 7.72656C20.3725 8.94844 20.652 10.2302 20.652 11.5719C20.652 12.8337 20.4124 14.0156 19.9333 15.1177C19.4541 16.2198 18.7993 17.1901 17.9687 18.0286C17.1381 18.8672 16.1638 19.522 15.0458 19.9932C13.9277 20.4644 12.7378 20.7 11.476 20.7Z" fill="white"/>
</g>
</g>
<defs>
<filter id="filter0_d_60_1615" x="0.371826" y="1.22813" width="22.2803" height="22.4719" filterUnits="userSpaceOnUse" color-interpolation-filters="sRGB">
<feFlood flood-opacity="0" result="BackgroundImageFix"/>
<feColorMatrix in="SourceAlpha" type="matrix" values="0 0 0 0 0 0 0 0 0 0 0 0 0 0 0 0 0 0 127 0" result="hardAlpha"/>
<feOffset dy="1"/>
<feGaussianBlur stdDeviation="1"/>
<feComposite in2="hardAlpha" operator="out"/>
<feColorMatrix type="matrix" values="0 0 0 0 0.764706 0 0 0 0 0.027451 0 0 0 0 0.294118 0 0 0 0.7 0"/>
<feBlend mode="normal" in2="BackgroundImageFix" result="effect1_dropShadow_60_1615"/>
<feBlend mode="normal" in="SourceGraphic" in2="effect1_dropShadow_60_1615" result="shape"/>
</filter>
<clipPath id="clip0_60_1615">
<rect width="23" height="23" fill="white"/>
</clipPath>
</defs>
</svg>

<svg width="23" height="23" fill="none" xmlns="http://www.w3.org/2000/svg"><g filter="url(#a)" clip-path="url(#b)"><path d="M10.422 12.506V2.228h2.18v10.278h-2.18Zm1.054 8.194a8.797 8.797 0 0 1-3.546-.719 9.308 9.308 0 0 1-2.899-1.964 9.139 9.139 0 0 1-1.952-2.9 8.924 8.924 0 0 1-.707-3.545 9.01 9.01 0 0 1 .826-3.81 8.603 8.603 0 0 1 2.36-3.066L7.26 6.373a5.917 5.917 0 0 0-2.012 2.252 6.356 6.356 0 0 0-.695 2.923c0 1.933.675 3.578 2.025 4.935 1.35 1.358 2.99 2.037 4.923 2.037 1.933 0 3.574-.679 4.923-2.037 1.35-1.357 2.025-3.002 2.025-4.935a6.55 6.55 0 0 0-.683-2.97 6.003 6.003 0 0 0-2-2.277l1.7-1.701a8.995 8.995 0 0 1 2.349 3.127 9.139 9.139 0 0 1 .838 3.845c0 1.262-.24 2.444-.719 3.546a9.452 9.452 0 0 1-1.964 2.91 9.097 9.097 0 0 1-6.493 2.671Z" fill="#fff"/></g><defs><clipPath id="b"><path fill="#fff" d="M0 0h23v23H0z"/></clipPath><filter id="a" x=".372" y="1.228" width="22.28" height="22.472" filterUnits="userSpaceOnUse" color-interpolation-filters="sRGB"><feFlood flood-opacity="0" result="BackgroundImageFix"/><feColorMatrix in="SourceAlpha" values="0 0 0 0 0 0 0 0 0 0 0 0 0 0 0 0 0 0 127 0" result="hardAlpha"/><feOffset dy="1"/><feGaussianBlur stdDeviation="1"/><feComposite in2="hardAlpha" operator="out"/><feColorMatrix values="0 0 0 0 0.764706 0 0 0 0 0.027451 0 0 0 0 0.294118 0 0 0 0.7 0"/><feBlend in2="BackgroundImageFix" result="effect1_dropShadow_60_1615"/><feBlend in="SourceGraphic" in2="effect1_dropShadow_60_1615" result="shape"/></filter></defs></svg>
